X: 17012
T: Health To The Ladies
R: jig
M: 6/8
K: Gmajor
|:ge|dB/A/G AGE|GED DE/F/G|A/B/cB A^GA|BA^G A=ge|
dBG AGE|GED D2 G|AcB A^GA|BGF G:|
|:GA|Bdd cee|B/c/de dBG|GB/c/d gfe|dBG A2 G|
B2 d c2 e|Bdd dBG|AcB A^GA|BGF G:|

